X:2714
L:1/8
M:6/8
K:C
 D | G2 D G G A | (Bc) B A2 z | G2 G F2 G | DEF G2 A | ABc ded | dBG (FE) D | d2 d !fermata!e2 d | 
 BBA G2 ||

